packages/components/bolt-icons/src/svgs/product/product/platform/intelligent-virtual-assistant.svg

<?xml version="1.0" encoding="UTF-8" standalone="no"?>
<svg width="32px" height="32px" viewBox="0 0 32 32" version="1.1" xmlns="http://www.w3.org/2000/svg" xmlns:xlink="http://www.w3.org/1999/xlink">
    <!-- Generator: Sketch 48.2 (47327) - http://www.bohemiancoding.com/sketch -->
    <title>Icon/product/Platform/intelligent-virtual-assistant</title>
    <desc>Created with Sketch.</desc>
    <defs></defs>
    <g id="Symbols" stroke="none" stroke-width="1" fill="none" fill-rule="evenodd">
        <g id="Icon/product/Platform/intelligent-virtual-assistant" fill="#000000">
            <path d="M28.5,14.5 C28.5,14.084 28.354,13.729 28.063,13.438 C27.771,13.146 27.416,13 27,13 C26.583,13 26.229,13.146 25.937,13.438 C25.646,13.729 25.5,14.084 25.5,14.5 L25.5,17.5 C25.5,17.917 25.646,18.271 25.937,18.562 C26.229,18.854 26.583,19 27,19 C27.416,19 27.771,18.854 28.063,18.562 C28.354,18.271 28.5,17.917 28.5,17.5 L28.5,14.5 Z M20,28 C20,27.334 19.666,27 19,27 L17,27 C16.333,27 16,27.334 16,28 C16,28.667 16.333,29 17,29 L19,29 C19.666,29 20,28.667 20,28 Z M6.5,14.5 C6.5,14.084 6.354,13.729 6.063,13.438 C5.771,13.146 5.416,13 5,13 C4.583,13 4.229,13.146 3.938,13.438 C3.646,13.729 3.5,14.084 3.5,14.5 L3.5,17.5 C3.5,17.917 3.646,18.271 3.938,18.562 C4.229,18.854 4.583,19 5,19 C5.416,19 5.771,18.854 6.063,18.562 C6.354,18.271 6.5,17.917 6.5,17.5 L6.5,14.5 Z M31.688,13.313 C31.896,13.521 32,13.75 32,14 L32,18 C32,18.667 31.666,19 31,19 L30.187,19 C29.687,20.042 28.875,20.687 27.75,20.937 C26.958,24.354 25.021,26.917 21.938,28.625 C21.771,29.334 21.416,29.906 20.875,30.344 C20.333,30.781 19.708,31 19,31 L17,31 C16.166,31 15.458,30.709 14.875,30.125 C14.291,29.542 14,28.834 14,28 C14,27.167 14.291,26.459 14.875,25.875 C15.458,25.292 16.166,25 17,25 L19,25 C20.166,25 21.041,25.5 21.625,26.5 C23.708,25.167 25.083,23.25 25.75,20.75 C24.25,20.209 23.5,19.125 23.5,17.5 L23.5,14.5 C23.5,13.75 23.719,13.063 24.156,12.437 C24.594,11.812 25.166,11.396 25.875,11.187 C25.541,8.854 24.489,6.906 22.719,5.344 C20.947,3.781 18.875,3 16.5,3 L15.5,3 C13.125,3 11.052,3.781 9.281,5.344 C7.51,6.906 6.458,8.854 6.125,11.187 C6.833,11.396 7.406,11.812 7.844,12.437 C8.281,13.063 8.5,13.75 8.5,14.5 L8.5,17.5 C8.5,18.334 8.239,19.062 7.719,19.687 C7.197,20.312 6.541,20.709 5.75,20.875 C4.958,21.084 4.197,21.011 3.469,20.656 C2.739,20.303 2.208,19.75 1.875,19 L1,19 C0.333,19 0,18.667 0,18 L0,14 C0,13.334 0.333,13 1,13 L1.875,13 C2.333,12 3.063,11.375 4.063,11.125 C4.396,8.25 5.656,5.844 7.844,3.906 C10.031,1.969 12.583,1 15.5,1 L16.5,1 C19.416,1 21.969,1.969 24.156,3.906 C26.344,5.844 27.604,8.25 27.938,11.125 C28.937,11.375 29.666,12 30.125,13 L31,13 C31.25,13 31.479,13.104 31.688,13.313 Z" id="Page-1"></path>
        </g>
    </g>
</svg>

<svg id="fad33671-7c24-44d5-92cf-ff1251e09021" data-name="Layer 1" xmlns="http://www.w3.org/2000/svg" viewBox="0 0 32 30"><title>intelligent-virtual-assistant</title><path id="bad714ce-3f36-450a-b83a-b4f19fc4d8b2" data-name="Page-1" d="M28.5,14.5a1.56,1.56,0,0,0-2.6-1.1,1.37,1.37,0,0,0-.4,1.1v3a1.5,1.5,0,0,0,.4,1.1A1.37,1.37,0,0,0,27,19a1.5,1.5,0,0,0,1.1-.4,1.37,1.37,0,0,0,.4-1.1ZM20,28c0-.7-.3-1-1-1H17c-.7,0-1,.3-1,1s.3,1,1,1h2C19.7,29,20,28.7,20,28ZM6.5,14.5a1.5,1.5,0,0,0-.4-1.1A1.5,1.5,0,0,0,5,13a1.5,1.5,0,0,0-1.1.4,1.37,1.37,0,0,0-.4,1.1v3a1.5,1.5,0,0,0,.4,1.1A1.5,1.5,0,0,0,5,19a1.5,1.5,0,0,0,1.1-.4,1.37,1.37,0,0,0,.4-1.1Zm25.2-1.2a.91.91,0,0,1,.3.7v4c0,.7-.3,1-1,1h-.8a3.31,3.31,0,0,1-2.4,1.9A11.37,11.37,0,0,1,22,28.6,3.2,3.2,0,0,1,19,31H17a3,3,0,0,1,0-6h2a2.79,2.79,0,0,1,2.6,1.5,8.88,8.88,0,0,0,4.1-5.8,3.05,3.05,0,0,1-2.2-3.2v-3a3.32,3.32,0,0,1,.7-2.1,3,3,0,0,1,1.7-1.2,8.92,8.92,0,0,0-3.2-5.8A8.94,8.94,0,0,0,16.5,3h-1A9.33,9.33,0,0,0,9.3,5.3a9.65,9.65,0,0,0-3.2,5.8,3,3,0,0,1,1.7,1.2,3.77,3.77,0,0,1,.7,2.1v3a3.49,3.49,0,0,1-.8,2.2,3.74,3.74,0,0,1-2,1.2,2.81,2.81,0,0,1-2.2-.1A3.32,3.32,0,0,1,1.9,19H1c-.7,0-1-.3-1-1V14c0-.7.3-1,1-1h.9a3.45,3.45,0,0,1,2.2-1.9A10.69,10.69,0,0,1,7.9,3.9,11.09,11.09,0,0,1,15.5,1h1a11.52,11.52,0,0,1,7.7,2.9A11.12,11.12,0,0,1,28,11.1,3.19,3.19,0,0,1,30.2,13H31A1.08,1.08,0,0,1,31.7,13.3Z" transform="translate(0 -1)" fill="#1f2555" fill-rule="evenodd"/></svg>
